X:117
M:C
L:1/8
Q:1/4=110
K:G Minor
dD d>c BGG:|
d|g>dgb f>d f2|b>ag>B G/A/B/c/ d z/^f/|g>dd>c B3/2c/4d/4 F>e|
dD d>c BGG>d|g>dgb f>d f2|b>ag>B G/A/B/c/ d>^f|
g>dd>c B3/2c/4d/4 F>e|dD d>c BGG||

